assets/symbols/mulberry/swimming_trunks.svg

<svg height="850.89" viewBox="0 0 850.89 850.89" width="850.89" xmlns="http://www.w3.org/2000/svg"><path d="m257.76 86.42v63.72h-48.38v-63.72zm0 0h83.07v63.72h-83.07zm166.15 63.72h-83.08v-63.72h166.15v63.72zm164.31-.17v.17h-81.24v-63.72h81.24v.91zm52.03-63.55v63.72h-52.03v-63.72z" fill="#00efdc"/><path d="m640.25 150.14s24.65 134.94 44.74 233.53c20.08 98.59 38.939 251.91 52.33 321.33 1.27 6.6-12 12.96-33.2 18.84l-96.66-573.7zm-398 0-96.43 572.4-.21.71c-19.65-5.68-31.77-11.78-30.55-18.09 13.38-69.42 32.25-222.74 52.33-321.33s41.99-233.69 41.99-233.69z" fill="#a3d9ff"/><path d="m423.91 150.14h183.549l96.66 573.7c-71 19.72-230.92 34.11-230.92 34.11l-45.03-385.07-3.96.16-45.03 385.07s-163.99-14.761-233.57-34.86l.21-.71 96.43-572.4z" fill="#00efdc"/><g fill="none"><g stroke="#000" stroke-width="21.909"><path d="m640.25 150.14h-430.87v-63.72h430.87zm0 0s24.65 134.94 44.74 233.53c20.08 98.59 38.939 251.91 52.33 321.33 1.27 6.6-12 12.96-33.2 18.84-71 19.72-230.92 34.11-230.92 34.11l-45.03-385.07-3.96.16-45.03 385.07s-163.99-14.761-233.57-34.86c-19.65-5.68-31.77-11.78-30.55-18.09 13.38-69.42 32.25-222.74 52.33-321.33s41.99-233.69 41.99-233.69m32.87 0-96.43 572.4"/><path d="m607.46 150.14 96.66 573.7.11.68m-446.47-638.1v63.72m83.07-63.72v63.72m83.08-58.24v58.83m83.07-63.4v61.88m81.24-61.88v62.64m-166.03-.67c-.19.28-.39.56-.59.84-12.88 17.97-39.58 28.15-26.7 50.43 13.67 23.64 45.35 28.44 49.87 58.24 3.601 23.84-22.729 38.3-41.149 44.64-9.27 3.19-31.75 14.31-42.13 29.83"/><path d="m429.22 152.84c-11.25 17.17-7.03 34.11 1.08 44.96 17.271 23.1 45.48 17.77 57.59 47.23 9.69 23.54-13.689 50.88-31 62.01-8.71 5.61-31.93 21.37-43.939 41.19"/></g><path d="m.25.25h850.394v850.394h-850.394z"/></g></svg>

<svg xmlns="http://www.w3.org/2000/svg" width="850.89" height="850.89" viewBox="0 0 850.89 850.89" overflow="visible"><path fill="#00efdc" d="M257.76 86.42v63.72H209.38V86.42zM257.76 86.42h83.07v63.72h-83.07zM423.91 150.14h-83.08V86.42h166.15v63.72zM588.22 149.97v.17h-81.24V86.42h81.24v.91zM640.25 86.42v63.72h-52.03V86.42z"/><path d="M640.25 150.14s24.65 134.94 44.74 233.53c20.08 98.59 38.939 251.91 52.33 321.33 1.27 6.6-12 12.96-33.2 18.84l-96.66-573.7h32.79zM242.25 150.14l-96.43 572.4-.21.71c-19.65-5.68-31.77-11.78-30.55-18.09 13.38-69.42 32.25-222.74 52.33-321.33s41.99-233.69 41.99-233.69h32.87z" fill="#a3d9ff"/><path d="M423.91 150.14h183.549l96.66 573.7c-71 19.72-230.92 34.11-230.92 34.11l-45.03-385.07-3.96.16-45.03 385.07s-163.99-14.761-233.57-34.86l.21-.71 96.43-572.4H423.91z" fill="#00efdc"/><g fill="none" stroke="#000" stroke-width="21.909"><path d="M640.25 150.14H209.38V86.42h430.87zM640.25 150.14s24.65 134.94 44.74 233.53c20.08 98.59 38.939 251.91 52.33 321.33 1.27 6.6-12 12.96-33.2 18.84-71 19.72-230.92 34.11-230.92 34.11l-45.03-385.07-3.96.16-45.03 385.07s-163.99-14.761-233.57-34.86c-19.65-5.68-31.77-11.78-30.55-18.09 13.38-69.42 32.25-222.74 52.33-321.33s41.99-233.69 41.99-233.69M242.25 150.14l-96.43 572.4"/><path d="M607.46 150.14l96.66 573.7.11.68M257.76 86.42v63.72M340.83 86.42v63.72M423.91 91.9V150.73M506.98 87.33v61.88M588.22 87.33v62.64M422.19 149.3c-.19.28-.39.56-.59.84-12.88 17.97-39.58 28.15-26.7 50.43 13.67 23.64 45.35 28.44 49.87 58.24 3.601 23.84-22.729 38.3-41.149 44.64-9.27 3.19-31.75 14.31-42.13 29.83"/><path d="M429.22 152.84c-11.25 17.17-7.03 34.11 1.08 44.96 17.271 23.1 45.48 17.77 57.59 47.23 9.69 23.54-13.689 50.88-31 62.01-8.71 5.61-31.93 21.37-43.939 41.19"/></g><path fill="none" d="M.25.25h850.394v850.394H.25z"/></svg>
